X: 1
P: The De'il's Awa With the Exciseman (2x)
R: jig
C: Scotland (Burns Song)
C: Arr. T. Traub 11-11-02
L: 1/8
M: 6/8
K: G
D|"G"G2 d ded|"Am"c2 B "D"ABc|"G"d2 G "D"G2 A |"G"B3 "A"d2 D|"G"G2 d ded|"Am"c2 B "D"ABc|"G"d2 G "D"G2 A |"G"B3 "D"d2 c||
"G"BAB "Em"G2 G|"Am"AGA "D"D2 D|"C"G2 G "D"G2 A|"G"B3 "D"d2 c|"G"BAB "Em"G2 G|"Am"AGA "D"D2 f|"G"g2 G "C"G2 A|"G"B3 d2 |]
